twotone/svg/mood_bad.svg

<svg xmlns="http://www.w3.org/2000/svg" width="24" height="24"><path fill="none" d="M0 0h24v24H0V0z"/><g fill="currentColor"><path opacity=".3" d="M12 4c-4.42 0-8 3.58-8 8s3.58 8 8 8 8-3.58 8-8-3.58-8-8-8zm3.5 4c.83 0 1.5.67 1.5 1.5s-.67 1.5-1.5 1.5-1.5-.67-1.5-1.5.67-1.5 1.5-1.5zm-7 0c.83 0 1.5.67 1.5 1.5S9.33 11 8.5 11 7 10.33 7 9.5 7.67 8 8.5 8zm-1.61 9c.8-2.04 2.78-3.5 5.11-3.5s4.31 1.46 5.11 3.5H6.89z"/><circle cx="8.5" cy="9.5" r="1.5"/><path d="M11.99 2C6.47 2 2 6.48 2 12s4.47 10 9.99 10C17.52 22 22 17.52 22 12S17.52 2 11.99 2zM12 20c-4.42 0-8-3.58-8-8s3.58-8 8-8 8 3.58 8 8-3.58 8-8 8z"/><path d="M12 13.5c-2.33 0-4.31 1.46-5.11 3.5h10.22c-.8-2.04-2.78-3.5-5.11-3.5z"/><circle cx="15.5" cy="9.5" r="1.5"/></g></svg>

<?xml version="1.0" encoding="utf-8"?>
<!-- Generator: Adobe Illustrator 19.1.0, SVG Export Plug-In . SVG Version: 6.00 Build 0)  -->
<svg version="1.1" xmlns="http://www.w3.org/2000/svg" xmlns:xlink="http://www.w3.org/1999/xlink" x="0px" y="0px" width="24px"
	 height="24px" viewBox="0 0 24 24" enable-background="new 0 0 24 24" xml:space="preserve">
<g id="Bounding_Boxes">
	<g id="ui_x5F_spec_x5F_header_copy_2">
	</g>
	<path fill="none" d="M0,0h24v24H0V0z"/>
</g>
<g id="Duotone" fill="currentColor">
	<g id="ui_x5F_spec_x5F_header_copy">
	</g>
	<g>
		<path opacity="0.3" d="M12,4c-4.42,0-8,3.58-8,8c0,4.42,3.58,8,8,8s8-3.58,8-8C20,7.58,16.42,4,12,4z M15.5,8
			C16.33,8,17,8.67,17,9.5c0,0.83-0.67,1.5-1.5,1.5S14,10.33,14,9.5C14,8.67,14.67,8,15.5,8z M8.5,8C9.33,8,10,8.67,10,9.5
			c0,0.83-0.67,1.5-1.5,1.5S7,10.33,7,9.5C7,8.67,7.67,8,8.5,8z M6.89,17c0.8-2.04,2.78-3.5,5.11-3.5s4.31,1.46,5.11,3.5H6.89z"/>
		<circle cx="8.5" cy="9.5" r="1.5"/>
		<path d="M11.99,2C6.47,2,2,6.48,2,12c0,5.52,4.47,10,9.99,10C17.52,22,22,17.52,22,12C22,6.48,17.52,2,11.99,2z M12,20
			c-4.42,0-8-3.58-8-8c0-4.42,3.58-8,8-8s8,3.58,8,8C20,16.42,16.42,20,12,20z"/>
		<path d="M12,13.5c-2.33,0-4.31,1.46-5.11,3.5h10.22C16.31,14.96,14.33,13.5,12,13.5z"/>
		<circle cx="15.5" cy="9.5" r="1.5"/>
	</g>
</g>
</svg>
